assets/images/icons/src/file-movie-o.svg

<?xml version="1.0" encoding="utf-8"?>
<!-- Generated by IcoMoon.io -->
<!DOCTYPE svg PUBLIC "-//W3C//DTD SVG 1.1//EN" "http://www.w3.org/Graphics/SVG/1.1/DTD/svg11.dtd">
<svg version="1.1" xmlns="http://www.w3.org/2000/svg" xmlns:xlink="http://www.w3.org/1999/xlink" width="12" height="14" viewBox="0 0 12 14">
<path fill="#444444" d="M11.469 2.969q0.219 0.219 0.375 0.594t0.156 0.688v9q0 0.312-0.219 0.531t-0.531 0.219h-10.5q-0.312 0-0.531-0.219t-0.219-0.531v-12.5q0-0.312 0.219-0.531t0.531-0.219h7q0.312 0 0.688 0.156t0.594 0.375zM8 1.062v2.937h2.937q-0.078-0.227-0.172-0.32l-2.445-2.445q-0.094-0.094-0.32-0.172zM11 13v-8h-3.25q-0.312 0-0.531-0.219t-0.219-0.531v-3.25h-6v12h10zM6 6q0.406 0 0.703 0.297t0.297 0.703v3q0 0.406-0.297 0.703t-0.703 0.297h-3q-0.406 0-0.703-0.297t-0.297-0.703v-3q0-0.406 0.297-0.703t0.703-0.297h3zM9.844 6.016q0.156 0.062 0.156 0.234v4.5q0 0.172-0.156 0.234-0.062 0.016-0.094 0.016-0.109 0-0.18-0.070l-2.070-2.078v-0.703l2.070-2.078q0.070-0.070 0.18-0.070 0.031 0 0.094 0.016z"></path>
</svg>

<svg xmlns="http://www.w3.org/2000/svg" width="12" height="14" viewBox="0 0 12 14"><path fill="#444" d="M11.469 2.969q.219.219.375.594t.156.688v9q0 .312-.219.531t-.531.219H.75q-.312 0-.531-.219T0 13.251V.751Q0 .439.219.22T.75.001h7q.312 0 .688.156t.594.375zM8 1.062v2.937h2.937q-.078-.227-.172-.32L8.32 1.234Q8.226 1.14 8 1.062zM11 13V5H7.75q-.312 0-.531-.219T7 4.25V1H1v12h10zM6 6q.406 0 .703.297T7 7v3q0 .406-.297.703T6 11H3q-.406 0-.703-.297T2 10V7q0-.406.297-.703T3 6h3zm3.844.016q.156.062.156.234v4.5q0 .172-.156.234Q9.782 11 9.75 11q-.109 0-.18-.07L7.5 8.852v-.703l2.07-2.078q.07-.07.18-.07.031 0 .094.016z"/></svg>
